packages/bezier-icons/icons/store.svg

<svg width="24" height="24" viewBox="0 0 24 24" fill="none" xmlns="http://www.w3.org/2000/svg">
<path fill-rule="evenodd" clip-rule="evenodd" d="M20.5002 3.00012H3.50021C2.67193 3.00012 2.00021 3.67184 2.00021 4.50012V9.42685L2.51332 9.91809C2.66924 10.0601 2.83189 10.1908 3.00021 10.3102V19.5001L3.00708 19.6446C3.07978 20.4051 3.72065 21.0001 4.50021 21.0001H19.5002L19.6447 20.9933C20.4052 20.9206 21.0002 20.2797 21.0002 19.5001V10.3093C21.1685 10.1899 21.3313 10.0592 21.4875 9.91734L22.0002 9.42238V4.50012C22.0002 3.67184 21.3285 3.00012 20.5002 3.00012ZM19.0002 11.1677C17.668 11.4295 16.2544 11.1671 15.0923 10.3815L14.989 10.308L14.9045 10.3687C13.1511 11.5567 10.8321 11.5558 9.07096 10.3603L8.99301 10.305L8.9093 10.3653C7.74399 11.1555 6.32971 11.4209 5.00019 11.1639L5.00001 19H8V13H16V19H19L19.0002 11.1677ZM14 19V15H10V19H14ZM20 5V8.556L19.9741 8.57806C18.8042 9.49692 17.1555 9.49091 16 8.56597V7H14V8.55158C12.8368 9.49148 11.1685 9.49588 10 8.56479V7H8V8.54975C6.88517 9.44111 5.3315 9.48607 4.18216 8.69268L4 8.556V5H20Z" fill="#313234"/>
</svg>

<svg xmlns="http://www.w3.org/2000/svg" width="24" height="24" fill="none" viewBox="0 0 24 24"><path fill="#313234" fill-rule="evenodd" d="M20.5 3h-17A1.5 1.5 0 0 0 2 4.5v4.927l.513.491q.235.213.487.392v9.19l.007.145A1.5 1.5 0 0 0 4.5 21h15l.145-.007A1.5 1.5 0 0 0 21 19.5v-9.19q.253-.18.488-.393L22 9.422V4.5A1.5 1.5 0 0 0 20.5 3M19 11.168a5.2 5.2 0 0 1-3.908-.786l-.103-.074-.085.06a5.21 5.21 0 0 1-5.833-.008l-.078-.055-.084.06A5.2 5.2 0 0 1 5 11.164V19h3v-6h8v6h3zM14 19v-4h-4v4zm6-14v3.556l-.026.022A3.2 3.2 0 0 1 16 8.566V7h-2v1.552a3.2 3.2 0 0 1-4 .013V7H8v1.55a3.2 3.2 0 0 1-3.818.143L4 8.556V5z" clip-rule="evenodd"/></svg>
